dist/svgs/unicons/line/upload-alt.svg

<svg xmlns="http://www.w3.org/2000/svg" viewBox="0 0 24 24"><path d="M9.71 6.71L11 5.41V17a1 1 0 002 0V5.41l1.29 1.3a1 1 0 001.42 0 1 1 0 000-1.42l-3-3a1 1 0 00-1.42 0l-3 3a1 1 0 001.42 1.42zM18 9h-2a1 1 0 000 2h2a1 1 0 011 1v7a1 1 0 01-1 1H6a1 1 0 01-1-1v-7a1 1 0 011-1h2a1 1 0 000-2H6a3 3 0 00-3 3v7a3 3 0 003 3h12a3 3 0 003-3v-7a3 3 0 00-3-3z"/></svg>

<svg xmlns="http://www.w3.org/2000/svg" viewBox="0 0 24 24"><path d="M9.71,6.71,11,5.41V17a1,1,0,0,0,2,0V5.41l1.29,1.3a1,1,0,0,0,1.42,0,1,1,0,0,0,0-1.42l-3-3a1,1,0,0,0-1.42,0l-3,3A1,1,0,0,0,9.71,6.71ZM18,9H16a1,1,0,0,0,0,2h2a1,1,0,0,1,1,1v7a1,1,0,0,1-1,1H6a1,1,0,0,1-1-1V12a1,1,0,0,1,1-1H8A1,1,0,0,0,8,9H6a3,3,0,0,0-3,3v7a3,3,0,0,0,3,3H18a3,3,0,0,0,3-3V12A3,3,0,0,0,18,9Z"/></svg>
